public/instagram.svg

<?xml version="1.0" encoding="UTF-8" standalone="no"?>
<!DOCTYPE svg PUBLIC "-//W3C//DTD SVG 1.1//EN" "http://www.w3.org/Graphics/SVG/1.1/DTD/svg11.dtd">
<svg width="100%" height="100%" viewBox="0 0 24 24" version="1.1" xmlns="http://www.w3.org/2000/svg" xmlns:xlink="http://www.w3.org/1999/xlink" xml:space="preserve" xmlns:serif="http://www.serif.com/" style="fill-rule:evenodd;clip-rule:evenodd;stroke-linejoin:round;stroke-miterlimit:2;">
    <path d="M17.34,5.46C16.682,5.46 16.14,6.002 16.14,6.66C16.14,7.318 16.682,7.86 17.34,7.86C17.998,7.86 18.54,7.318 18.54,6.66C18.54,6.002 17.998,5.46 17.34,5.46ZM21.94,7.88C21.921,7.05 21.765,6.229 21.48,5.45C21.226,4.783 20.83,4.179 20.32,3.68C19.825,3.167 19.22,2.774 18.55,2.53C17.773,2.236 16.951,2.077 16.12,2.06C15.06,2 14.72,2 12,2C9.28,2 8.94,2 7.88,2.06C7.049,2.077 6.227,2.236 5.45,2.53C4.782,2.777 4.177,3.17 3.68,3.68C3.167,4.175 2.774,4.78 2.53,5.45C2.236,6.227 2.077,7.049 2.06,7.88C2,8.94 2,9.28 2,12C2,14.72 2,15.06 2.06,16.12C2.077,16.951 2.236,17.773 2.53,18.55C2.774,19.22 3.167,19.825 3.68,20.32C4.177,20.83 4.782,21.223 5.45,21.47C6.227,21.764 7.049,21.923 7.88,21.94C8.94,22 9.28,22 12,22C14.72,22 15.06,22 16.12,21.94C16.951,21.923 17.773,21.764 18.55,21.47C19.22,21.226 19.825,20.833 20.32,20.32C20.832,19.823 21.228,19.218 21.48,18.55C21.765,17.771 21.921,16.95 21.94,16.12C21.94,15.06 22,14.72 22,12C22,9.28 22,8.94 21.94,7.88ZM20.14,16C20.133,16.635 20.018,17.264 19.8,17.86C19.64,18.295 19.384,18.688 19.05,19.01C18.726,19.34 18.333,19.596 17.9,19.76C17.304,19.978 16.675,20.093 16.04,20.1C15.04,20.15 14.67,20.16 12.04,20.16C9.41,20.16 9.04,20.16 8.04,20.1C7.381,20.112 6.725,20.011 6.1,19.8C5.686,19.628 5.311,19.373 5,19.05C4.668,18.729 4.415,18.335 4.26,17.9C4.016,17.295 3.88,16.652 3.86,16C3.86,15 3.8,14.63 3.8,12C3.8,9.37 3.8,9 3.86,8C3.864,7.351 3.983,6.708 4.21,6.1C4.386,5.678 4.656,5.302 5,5C5.304,4.656 5.679,4.383 6.1,4.2C6.71,3.98 7.352,3.865 8,3.86C9,3.86 9.37,3.8 12,3.8C14.63,3.8 15,3.8 16,3.86C16.635,3.867 17.264,3.982 17.86,4.2C18.314,4.369 18.722,4.643 19.05,5C19.378,5.307 19.634,5.683 19.8,6.1C20.022,6.709 20.137,7.352 20.14,8C20.19,9 20.2,9.37 20.2,12C20.2,14.63 20.19,15 20.14,16ZM12,6.87C9.19,6.875 6.88,9.19 6.88,12C6.88,14.814 9.196,17.13 12.01,17.13C14.824,17.13 17.14,14.814 17.14,12C17.14,11.997 17.14,11.993 17.14,11.99C17.14,9.181 14.829,6.87 12.02,6.87C12.013,6.87 12.007,6.87 12,6.87ZM12,15.33C10.173,15.33 8.67,13.827 8.67,12C8.67,10.173 10.173,8.67 12,8.67C13.827,8.67 15.33,10.173 15.33,12C15.33,13.827 13.827,15.33 12,15.33Z" style="fill:white;fill-rule:nonzero;"/>
</svg>

<svg xmlns="http://www.w3.org/2000/svg" data-name="Layer 1" viewBox="0 0 24 24"><path d="M17.34,5.46h0a1.2,1.2,0,1,0,1.2,1.2A1.2,1.2,0,0,0,17.34,5.46Zm4.6,2.42a7.59,7.59,0,0,0-.46-2.43,4.94,4.94,0,0,0-1.16-1.77,4.7,4.7,0,0,0-1.77-1.15,7.3,7.3,0,0,0-2.43-.47C15.06,2,14.72,2,12,2s-3.06,0-4.12.06a7.3,7.3,0,0,0-2.43.47A4.78,4.78,0,0,0,3.68,3.68,4.7,4.7,0,0,0,2.53,5.45a7.3,7.3,0,0,0-.47,2.43C2,8.94,2,9.28,2,12s0,3.06.06,4.12a7.3,7.3,0,0,0,.47,2.43,4.7,4.7,0,0,0,1.15,1.77,4.78,4.78,0,0,0,1.77,1.15,7.3,7.3,0,0,0,2.43.47C8.94,22,9.28,22,12,22s3.06,0,4.12-.06a7.3,7.3,0,0,0,2.43-.47,4.7,4.7,0,0,0,1.77-1.15,4.85,4.85,0,0,0,1.16-1.77,7.59,7.59,0,0,0,.46-2.43c0-1.06.06-1.4.06-4.12S22,8.94,21.94,7.88ZM20.14,16a5.61,5.61,0,0,1-.34,1.86,3.06,3.06,0,0,1-.75,1.15,3.19,3.19,0,0,1-1.15.75,5.61,5.61,0,0,1-1.86.34c-1,.05-1.37.06-4,.06s-3,0-4-.06A5.73,5.73,0,0,1,6.1,19.8,3.27,3.27,0,0,1,5,19.05a3,3,0,0,1-.74-1.15A5.54,5.54,0,0,1,3.86,16c0-1-.06-1.37-.06-4s0-3,.06-4A5.54,5.54,0,0,1,4.21,6.1,3,3,0,0,1,5,5,3.14,3.14,0,0,1,6.1,4.2,5.73,5.73,0,0,1,8,3.86c1,0,1.37-.06,4-.06s3,0,4,.06a5.61,5.61,0,0,1,1.86.34A3.06,3.06,0,0,1,19.05,5,3.06,3.06,0,0,1,19.8,6.1,5.61,5.61,0,0,1,20.14,8c.05,1,.06,1.37.06,4S20.19,15,20.14,16ZM12,6.87A5.13,5.13,0,1,0,17.14,12,5.12,5.12,0,0,0,12,6.87Zm0,8.46A3.33,3.33,0,1,1,15.33,12,3.33,3.33,0,0,1,12,15.33Z"/></svg>
